X:3659
T:Custom House
T: Paddy Kelly's
R:Reel
S:
C:Paddy Kelly (possibly)
H:
N:This is played normally in D, as is 49, while 50 is normally in A. (A great set to annoy flute players!!)
D:Milltown Session. Also Kevin and Sean Moloney. 
Z:Adrian Scahill
M:4/4
L:1/8
K:E
BEE2 GABc|=dBAF =DEFA|BEE2 GABc|=d3f edBA|\
BEE2 GABc|=dBAF =DEFA|BEE2 GABc|dBAF FEE2:||\
Bee2 efge|fede fga2|Bee2 efge|fbba feed|\
Bee2 efge|fede fga2|b3a fee2|fbba fee2:||


